!!!!SEGMENT: pl-kk--kk-i-491_anonim--offertorium-de-tempore.krn
!!!cenid: 17xx:1833
!!!COM: Anonim
!!!COM-rismid: pe30004985
!!!CDT:
!!!CNT:
!!!OTL: Offertorium de tempore
!!!PDT:
!!!AGN:
!!!SMS-siglum: PL-Kk
!!!SMS-shelfmark: Kk.I.491
!!!SMS-shelfwork: W
!!!SMS-variant:
!!!SMS-altvar:
!!!NIFC-rismid: 1001136674
!!!URL-scan: http://repozytorium.nifc.pl/skany/pl-kk-nut--i-491
!!!ONB-nifc:
!!!AIN: 1 alto 1 empty 1 soprn 1 tenor
!!!key:
**kern	**text	**dynam	**kern	**text	**dynam	**kern	**text	**dynam	**kern	**text
*part4	*part4	*part4	*part3	*part3	*part3	*part2	*part2	*part2	*part1	*part1
*group1	*	*	*group1	*	*	*group1	*	*	*group1	*
*staff4	*staff4	*	*staff3	*staff3	*	*staff2	*staff2	*	*staff1	*staff1
*Iempty	*	*	*Itenor	*	*	*Ialto	*	*	*Isoprn	*
*I"Baſso.	*	*	*I"Tenore.	*	*	*I"Alto.	*	*	*I"Soprano.	*
*I'B	*	*	*I'T	*	*	*I'A	*	*	*I'S	*
*clefF4	*	*	*clefC4	*	*	*clefC3	*	*	*clefC1	*
*k[b-e-]	*	*	*k[b-e-]	*	*	*k[b-e-]	*	*	*k[b-e-]	*
*B-:	*	*	*B-:	*	*	*B-:	*	*	*B-:	*
*M2/4	*	*	*M2/4	*	*	*M2/4	*	*	*M2/4	*
=1	=1	=1	=1	=1	=1	=1	=1	=1	=1	=1
*all\right	*	*	*all\right	*	*	*all\right	*	*	*all\right	*
!LO:TX:t=P:global:problem=oznaczenia dynamiczne notowane na pięciolinii	!	!	!LO:TX:t=P:global:problem=oznaczenia dynamiczne notowane na pięciolinii	!	!	!LO:TX:t=P:global:problem=oznaczenia dynamiczne notowane na pięciolinii	!	!	!	!
!LO:TX:a:i:t=Andante Maestoso.	!	!	!LO:TX:a:i:t=Andante Maestoso	!	!	!	!	!	!	!
!LO:TX:a:i:t=Offertorium de tempore	!	!	!LO:TX:a:i:t=Offertorium de tempore.	!	!	!LO:TX:a:i:t=Offertorium de Tempore.	!	!	!LO:TX:a:i:t=Offertoruim de tempore	!
8.B-\L	Lau-	.	8.d\L	Lau-	.	4f\	Lau-	>	8.b-\L	Lau-
16c\Jk	.	.	16e-\Jk	.	.	.	.	.	16a\Jk	.
8c\	-da	.	8e-\	-da	.	8f\	-da	]	8a\	-da,
8r	.	.	8r	.	.	8r	.	.	8r	.
=2	=2	=2	=2	=2	=2	=2	=2	=2	=2	=2
8.A\L	lau-	.	8.e-\L	lau-	.	4f\	lau-	>	8.cc\L	lau-
16B-\Jk	.	.	16d\Jk	.	.	.	.	.	16b-\Jk	.
8B-\	-da	.	8d\	-da	.	8f\	-da	]	8b-\	-da,
8r	.	.	8r	.	.	8r	.	.	8r	.
=3	=3	=3	=3	=3	=3	=3	=3	=3	=3	=3
*2\right	*	*	*2\right	*	*	*2\right	*	*	*	*
2A\	lau-	.	2c\	lau-	.	2f\	lau-	<	4.ff\	lau-
.	.	.	.	.	.	.	.	.	8ee-\	.
=4	=4	=4	=4	=4	=4	=4	=4	=4	=4	=4
4B-\	-da	.	4B-\	-da	.	4f\	-da	[	4dd\	-da
4r	.	.	4r	.	.	4r	.	.	4r	.
=5	=5	=5	=5	=5	=5	=5	=5	=5	=5	=5
!LO:TX:a:t=3.	!	!	!	!	!	!	!	!	!	!
!LO:N:vis=0	!	!	!	!	!	!	!	!	!	!
1r	.	.	2e-\	A-	.	2g\	A-	.	4.cc\	A-
.	.	.	.	.	.	.	.	.	8b-\	.
=6	=6	=6	=6	=6	=6	=6	=6	=6	=6	=6
.	.	.	8e-\	-ni-	.	8f\	-ni-	.	8a\	-ni-
.	.	.	8d\	-ma	.	8f\	-ma	.	8b-\	-ma
.	.	.	8c\	me-	.	8a\	me-	.	8cc\	me-
.	.	.	8B-\	-a	.	8b-\	-a	.	8dd\	-a
!	!	!	!LO:LB:g=original	!	!	!	!	!	!LO:LB:g=original	!
=7	=7	=7	=7	=7	=7	=7	=7	=7	=7	=7
2r	.	.	8f\	Do-	.	8b-\	Do-	.	8dd\	Do-
.	.	.	8f\	-mi-	.	8b-\	-mi-	.	8dd\	-mi-
.	.	.	4F/	-num	.	4a\	-num	.	4cc\	-num,
!	!	!	!	!	!	!LO:LB:g=original	!	!	!	!
=8	=8	=8	=8	=8	=8	=8	=8	=8	=8	=8
4.E-\	A-	.	(4.c\	A-	.	2f\	A-	.	4.a\	A-
8D\	.	.	8d\)	.	.	.	.	.	8b-\	.
=9	=9	=9	=9	=9	=9	=9	=9	=9	=9	=9
8C/	-ni-	.	8A\	-ni-	.	8f\	-ni-	.	8cc\	-ni-
8BB-/	-ma	.	8B-\	-ma	.	8f\	-ma	.	8dd\	-ma
!LO:LB:g=original	!	!	!	!	!	!	!	!	!	!
8AA/	me-	.	8c\	me-	.	8f\	me-	.	8ff\	me-
8AA/	-a	.	8c\	-a	.	8f\	-a	.	8ee-\	-a
=10	=10	=10	=10	=10	=10	=10	=10	=10	=10	=10
8BB-/	Do-	.	8c\	Do-	.	8f\	Do-	.	8ee-\	Do-
8BB-/	-mi-	.	8c\	-mi-	.	8f\	-mi-	.	8ee-\	-mi-
4BB-/	-num	.	4B-\	-num	.	4f\	-num	.	4dd\	-num,
=11	=11	=11	=11	=11	=11	=11	=11	=11	=11	=11
4.G\	A-	.	2B-\	A-	.	4.e-\	A-	.	4.ee-\	A-
8F\	.	.	.	.	.	8f\	.	.	8dd\	.
=12	=12	=12	=12	=12	=12	=12	=12	=12	=12	=12
8E-\	.	.	8B-\L	.	.	4g\	.	.	8cc\L	.
8BBn/	.	.	8d\J	.	.	.	.	.	8gg\J	.
8C/	-ni-	.	8e-\	-ni-	.	8g\	-ni-	.	8ee-\	-ni-
8E-\	-ma	.	8e-\	-ma	.	8g\	-ma	.	8cc\	-ma
!	!	!	!LO:LB:g=original	!	!	!	!	!	!LO:LB:g=original	!
=13	=13	=13	=13	=13	=13	=13	=13	=13	=13	=13
4F\	me-	.	4d\	me-	.	4.f\	me-	.	4.b-\	me-
4FF/	.	.	4A\	.	.	.	.	.	.	.
.	.	.	.	.	.	.	.	.	8qdd/	.
.	.	.	.	.	.	8e-\	.	.	8cc\	.
=14	=14	=14	=14	=14	=14	=14	=14	=14	=14	=14
4BB-/	-a	.	4B-\	-a,	.	4d\	-a	.	4b-\	-a,
4r	.	.	4r	.	.	4r	.	.	4r	.
!	!	!	!	!	!	!LO:LB:g=original	!	!	!	!
=15	=15	=15	=15	=15	=15	=15	=15	=15	=15	=15
8.B-\L	lau-	.	8.d\L	lau-	.	4f\	lau-	.	8.b-\L	lau-
16c\Jk	.	.	16e-\Jk	.	.	.	.	.	16a\Jk	.
8c\	-da	.	8e-\	-da	.	8f\	-da	.	8a\	-da
8r	.	.	8r	.	.	8r	.	.	8r	.
!LO:LB:g=original	!	!	!	!	!	!	!	!	!	!
=16	=16	=16	=16	=16	=16	=16	=16	=16	=16	=16
8.A\L	lau-	.	8.e-\L	lau-	.	4f\	lau-	.	8.cc\L	lau-
16B-\Jk	.	.	16d\Jk	.	.	.	.	.	16b-\Jk	.
8B-\	-da	.	8d\	-da	.	8f\	-da	.	8b-\	-da
8r	.	.	8r	.	.	8r	.	.	8r	.
=17	=17	=17	=17	=17	=17	=17	=17	=17	=17	=17
2F\	lau-	.	2c\	lau-	.	2e-\	lau-	.	4ff\	lau-
.	.	.	.	.	.	.	.	.	8.a\L	.
.	.	.	.	.	.	.	.	.	16b-\Jk	.
=18	=18	=18	=18	=18	=18	=18	=18	=18	=18	=18
4BB-/	-da	.	4B-\	-da.	.	4d\	-da,	.	4b-\	-da.
4r	.	.	4r	.	.	4r	.	.	4r	.
=19||	=19||	=19||	=19||	=19||	=19||	=19||	=19||	=19||	=19||	=19||
*k[b-e-a-]	*	*	*k[b-e-a-]	*	*	*k[b-e-a-]	*	*	*k[b-e-a-]	*
*E-:	*	*	*E-:	*	*	*E-:	*	*	*E-:	*
!	!	!	!	!	!	!	!	!	!LO:TX:a:t=P:problem=bemole b- e- ee-(zamiast a-)	!
4.E-\	Psal-	.	4.e-\	Psal-	.	4.g\	Psal-	.	4.b-\	Psal-
8E-\	-lam	.	8B-\	-lam	.	8g\	-lam	.	8ee-\	-lam
!	!	!	!LO:LB:g=original	!	!	!	!	!	!LO:LB:g=original	!
=20	=20	=20	=20	=20	=20	=20	=20	=20	=20	=20
8F\	De-	.	8B-\	De-	.	8a-\	De-	.	8dd\	De-
8F\	-o	.	8B-\	-o	.	8a-\	-o	.	8dd\	-o
8D\L	me-	.	4B-\	me-	.	8a-\L	me-	.	8ff\L	me-
8E-\J	.	.	.	.	.	8g\J	.	.	8ee-\J	.
=21	=21	=21	=21	=21	=21	=21	=21	=21	=21	=21
4F\	-o,	.	4B-\	-o	.	4a-\	-o,	.	4dd\	-o,
4r	.	.	4r	.	.	4r	.	.	4r	.
!	!	!	!	!	!	!LO:LB:g=original	!	!	!	!
=22	=22	=22	=22	=22	=22	=22	=22	=22	=22	=22
*	*	*	*	*	*	*	*	*	*2\right	*
2F\	quam	.	2B-\	quam	.	2a-\	quam	.	2dd\	quam
=23	=23	=23	=23	=23	=23	=23	=23	=23	=23	=23
8G\	Di-	.	8B-\	di-	.	8g\	di-	.	8ee-\	di-
8G\	-u	.	8B-\	-u	.	8g\	-u	.	8ee-\	-u
!LO:LB:g=original	!	!	!	!	!	!	!	!	!	!
8D\	fu-	.	8B-\	fu-	.	8b-\	fu-	.	8ff\	fu-
8D\	-e-	.	8B-\	-e-	.	8b-\	-e-	.	8ff\	-e-
=24	=24	=24	=24	=24	=24	=24	=24	=24	=24	=24
4E-\	-ro,	.	4B-\	-ro,	.	4b-\	-ro	.	4gg\	-ro,
4r	.	.	4r	.	.	4r	.	.	4r	.
=25	=25	=25	=25	=25	=25	=25	=25	=25	=25	=25
!	!	!LO:DY:b:rj	!	!	!	!	!	!	!	!
2F\	quam	p	2e-\	quam	.	2f\	quam	.	2an\	quam
=26	=26	=26	=26	=26	=26	=26	=26	=26	=26	=26
8F\	Di-	.	8d\	di-	.	8f\	di-	.	8b-\	di-
8F\	-u	.	8B-\	-u	.	8b-\	-u	.	8dd\	-u
!	!	!	!LO:LB:g=original	!	!	!	!	!	!	!
8F\	fu-	.	8An\	fu-	.	8cc\	fu-	.	8ff\	fu-
8F\	-e-	.	8c\	-e-	.	8an\	-e-	.	8ee-\	-e-
!	!	!	!	!	!	!	!	!	!LO:LB:g=original	!
=27	=27	=27	=27	=27	=27	=27	=27	=27	=27	=27
4B-\	-ro,	.	4B-\	-ro,	.	4f\	-ro,	.	4dd\	-ro,
4r	.	.	4r	.	.	4r	.	.	4r	.
=28	=28	=28	=28	=28	=28	=28	=28	=28	=28	=28
!	!	!LO:DY:b:rj	!	!	!LO:DY:b:rj	!	!	!LO:DY:b:rj	!	!
4.G\	psal-	f	4.f\	psal-	f	4.g\	psal-	f	4.bn\	psal-
8G\	-lam	.	8f\	-lam	.	8g\	-lam	.	8b\	-lam
!	!	!	!	!	!	!LO:LB:g=original	!	!	!	!
=29	=29	=29	=29	=29	=29	=29	=29	=29	=29	=29
8G\	psal-	.	8e-\	De-	.	8g\	psal-	.	8cc\	psal-
8G\	-lam	.	8c\	-o	.	8cc\	-lam	.	8ee-\	-lam
4G\	De-	.	8Bn\L	me-	.	8dd\L	De-	.	8gg\L	De-
.	.	.	8d\J	.	.	8bn\J	.	.	8ff\J	.
=30	=30	=30	=30	=30	=30	=30	=30	=30	=30	=30
4c\	-o,	.	4c\	-o,	.	4g\	-o,	.	4ee-\	-o,
4r	.	.	4r	.	.	4r	.	.	4r	.
!LO:LB:g=original	!	!	!	!	!	!	!	!	!	!
=31	=31	=31	=31	=31	=31	=31	=31	=31	=31	=31
4.An\	psal-	.	4.c\	psal-	.	4.f\	psal-	.	4.ee-\	psal-
8A\	-lam	.	8c\	-lam	.	8f\	-lam	.	8ee-\	-lam
=32	=32	=32	=32	=32	=32	=32	=32	=32	=32	=32
8B-\	psal-	.	8B-\	psal-	.	8f\	psal-	.	8dd\	psal-
8A-X\	-lam	.	8B-\	-lam	.	8f\	-lam	.	8dd\	-lam.
8G\	De-	.	8B-\	De-	.	8g\	De-	.	8ee-\	De-
8D\	-o	.	8B-\	-o	.	8b-\	-o	.	8ff\	-o
!	!	!	!LO:LB:g=original	!	!	!	!	!	!	!
=33	=33	=33	=33	=33	=33	=33	=33	=33	=33	=33
8E-\	me-	.	8B-\	me-	.	8b-\	me-	.	8gg\	me-
8G\	-o	.	8B-\	-o	.	8g\	-o	.	8ee-\	-o,
4r	.	.	4r	.	.	4r	.	.	4r	.
!	!	!	!	!	!	!	!	!	!LO:LB:g=original	!
=34	=34	=34	=34	=34	=34	=34	=34	=34	=34	=34
!	!	!LO:DY:b:rj	!	!	!	!	!	!	!	!
4A-\	quam	p	4e-\	quam	.	4cc\	quam	.	4ee-\	quam
8A-\	di-	.	8e-\	di-	.	8b-\	di-	.	8dd\	di-
8A-\	-u	.	8e-\	-u	.	8a-\	-u	.	8cc\	-u
!	!	!	!	!	!	!LO:LB:g=original	!	!	!	!
=35	=35	=35	=35	=35	=35	=35	=35	=35	=35	=35
4B-\	quam	.	4e-\	quam	.	4g\	quam	.	4b-\	quam
8c\	di-	.	8e-\	di-	.	8f#X\	di-	.	8an\	di-
8c\	-u	.	8e-\	-u	.	8f#\	-u	.	8a\	-u
=36	=36	=36	=36	=36	=36	=36	=36	=36	=36	=36
4B-\	fu-	.	4e-\	fu-	.	4g\	fu-	.	4.b-\	fu-
4BB-/	-e-	.	4d\	-e-	.	4fn\	-e-	.	.	.
.	.	.	.	.	.	.	.	.	16a-X\LL	.
.	.	.	.	.	.	.	.	.	16f\JJ	-e-
=37	=37	=37	=37	=37	=37	=37	=37	=37	=37	=37
4E-\	-ro.	.	4e-\	-ro	.	4g\	-ro,	.	4e-/	-ro,
4r	.	.	4r	.	.	4r	.	.	4r	.
!LO:LB:g=original	!	!	!	!	!	!	!	!	!	!
=38||	=38||	=38||	=38||	=38||	=38||	=38||	=38||	=38||	=38||	=38||
*k[]	*	*	*k[]	*	*	*k[]	*	*	*k[]	*
*C:	*	*	*C:	*	*	*C:	*	*	*C:	*
!LO:TX:a:t=P:problem=kolejność kasowników En BBn An	!	!LO:DY:b:rj	!	!	!	!	!	!	!	!
4.C/	Qui	f	4.G/	Qui	.	4.e\	Qui	.	4.cc\	Qui
8C/	cu-	.	8c\	cu-	.	8e\	cu-	.	8g\	cus-
=39	=39	=39	=39	=39	=39	=39	=39	=39	=39	=39
8c\	-sto-	.	8c\	-sto-	.	8g\	-sto-	.	8ee\	-to-
8c\	-dit	.	8e\	-dit	.	8g\	-dit	.	8cc\	-dit
!	!	!	!LO:LB:g=original	!	!	!	!	!	!	!
8G\	ve-	.	8d\	ve-	.	8g\	ve-	.	8b\	ve-
8G\	-ri-	.	8f\	-ri-	.	8g\	-ri-	.	8dd\	-ri-
!	!	!	!	!	!	!	!	!	!LO:LB:g=original	!
=40	=40	=40	=40	=40	=40	=40	=40	=40	=40	=40
8c\	-ta-	.	8e\	-ta-	.	8g\	-ta-	.	8cc\	-ta-
8c\	-tem	.	8e\	-tem	.	8g\	-tem	.	8cc\	-tem
4r	.	.	4r	.	.	4r	.	.	4r	.
!	!	!	!	!	!	!LO:LB:g=original	!	!	!	!
=41	=41	=41	=41	=41	=41	=41	=41	=41	=41	=41
!	!	!LO:DY:b:rj	!	!	!	!	!	!	!	!
4.B\	qui	p	4.d\	qui	.	4.f\	qui	.	4.g\	qui
8B\	cu-	.	8d\	cu-	.	8f\	cu-	.	8g\	cu-
=42	=42	=42	=42	=42	=42	=42	=42	=42	=42	=42
8c\	-sto-	.	8c\	-sto-	.	8e\	-sto-	.	8g\	-sto-
8C/	-dit	.	8g\	-dit	.	8e\	-dit	.	8ee\	-dit
8F\	ve-	.	8f\	ve-	.	8a\	ve-	.	8dd\	ve-
8F#X\	-ri-	.	8e\	-ri-	.	8a\	-ri-	.	8cc\	-ri-
=43	=43	=43	=43	=43	=43	=43	=43	=43	=43	=43
8G\	-ta-	.	8d\	-ta-	.	8g\	-ta-	.	8b\	-ta-
8G\	-tem	.	8d\	-tem	.	8g\	-tem	.	8b\	-tem
4r	.	.	4r	.	.	4r	.	.	4r	.
!LO:LB:g=original	!	!	!	!	!	!	!	!	!	!
=44	=44	=44	=44	=44	=44	=44	=44	=44	=44	=44
4F#X\	ve-	.	4c\	ve-	.	4a\	ve-	.	4dd\	ve-
4G\	-ri-	.	4B\	-ri-	.	4g\	-ri-	.	4dd\	-ri-
=45	=45	=45	=45	=45	=45	=45	=45	=45	=45	=45
4A\	-ta-	.	4c\	-ta-	.	4f#X\	-ta-	.	4.dd\	-ta-
4B\	-tem	.	4d\	-tem	.	4g\	-tem	.	.	.
.	.	.	.	.	.	.	.	.	8dd\	-tem
!	!	!	!LO:LB:g=original	!	!	!	!	!	!	!
=46	=46	=46	=46	=46	=46	=46	=46	=46	=46	=46
!	!	!LO:DY:b:rj	!	!	!	!	!	!	!	!
2c\	tu-	f	2f#X\	tu-	.	2a\	tu-	.	4dd\	tu-
.	.	.	.	.	.	.	.	.	8ee\L	.
.	.	.	.	.	.	.	.	.	8dd\J	.
!	!	!	!	!	!	!	!	!	!LO:LB:g=original	!
=47	=47	=47	=47	=47	=47	=47	=47	=47	=47	=47
4B\	-am	.	4g\	-am	.	4g\	-am	.	4dd\	-am,
4r	.	.	4r	.	.	4r	.	.	4r	.
!	!	!	!	!	!	!LO:LB:g=original	!	!	!	!
=48	=48	=48	=48	=48	=48	=48	=48	=48	=48	=48
4F#X\	ve-	.	4c\	ve-	.	4a\	ve-	.	4dd\	ve-
4G\	-ri-	.	4B\	-ri-	.	4g\	-ri-	.	4dd\	-ri-
=49	=49	=49	=49	=49	=49	=49	=49	=49	=49	=49
4A\	-ta-	.	4c\	-ta-	.	4f#X\	-ta-	.	4dd\	-ta-
4B\	-tem	.	4d\	-tem	.	4g\	-tem	.	4dd\	-tem
=50	=50	=50	=50	=50	=50	=50	=50	=50	=50	=50
!	!	!LO:DY:b:rj	!	!	!	!	!	!	!	!
2c\	tu-	f	2f#X\	tu-	.	2a\	tu-	.	4dd\	tu-
.	.	.	.	.	.	.	.	.	8ee\L	.
.	.	.	.	.	.	.	.	.	8dd\J	.
=51	=51	=51	=51	=51	=51	=51	=51	=51	=51	=51
4B\	-am	.	4g\	-am	.	4g\	-am	.	4dd\	-am
4r	.	.	4r	.	.	4r	.	.	4r	.
=52	=52	=52	=52	=52	=52	=52	=52	=52	=52	=52
!	!	!	!	!	!LO:DY:b:rj	!	!	!LO:DY:b:rj	!	!
4.Fn\	in	.	(4g\	in	fp	(4b\	in	fp	(4dd\	in
.	.	.	8d\)	.	.	8g\)	.	.	8b\)	,
8r	.	.	8r	.	.	8r	.	.	8r	.
!LO:LB:g=original	!	!	!	!	!	!	!	!	!	!
=53	=53	=53	=53	=53	=53	=53	=53	=53	=53	=53
4E\	se-	.	4c\	se-	.	4g\	se-	.	4cc\	se-
8D\	-cu-	.	8B\	-cu-	.	8g\	-cu-	.	8dd\	-cu-
8C/	-lum	.	8c\	-lum	.	8g\	-lum	.	8ee\	-lum
!	!	!	!LO:LB:g=original	!	!	!	!	!	!	!
=54	=54	=54	=54	=54	=54	=54	=54	=54	=54	=54
8.F\	se-	.	8.c\	se-	.	8.a\	se-	.	8.ee\	se-
16F\	-cu-	.	16c\	-cu-	.	16a\	-cu-	.	16a\	-cu-
4F\	-li	.	4c\	-li	.	4a\	-li	.	4a\	-li
!	!	!	!	!	!	!LO:LB:g=original	!	!	!LO:LB:g=original	!
=55	=55	=55	=55	=55	=55	=55	=55	=55	=55	=55
4D\	in	.	2d\	in	.	2a\	in	.	4ff\	in
.	.	.	.	.	.	.	.	.	8qee/	.
4F\	.	.	.	.	.	.	.	.	4dd\	.
=56	=56	=56	=56	=56	=56	=56	=56	=56	=56	=56
.	.	.	.	.	.	.	.	.	8qcc/	.
4G\	se-	.	4d\	se-	.	4f\	se-	.	4b\	se-
8A\	-cu-	.	8c\	-cu-	.	8e\	-cu-	.	8cc\	-cu-
8A\	-lum	.	8c\	-lum	.	8e\	-lum	.	8cc\	-lum
=57	=57	=57	=57	=57	=57	=57	=57	=57	=57	=57
4r	.	.	4r	.	.	4r	.	.	4r	.
4F\	se-	.	8c\L	se-	.	4a\	se-	.	8cc\L	se-
.	.	.	(8f\J	.	.	.	.	.	8ff\J	.
=58	=58	=58	=58	=58	=58	=58	=58	=58	=58	=58
4G\	.	.	4e\	.	.	4.g\	.	.	4ee\	.
4GG/	-cu-	.	4d\)	-cu-	.	.	.	.	4dd\	-cu-
.	.	.	.	.	.	8f\	-cu-	.	.	.
=59	=59	=59	=59	=59	=59	=59	=59	=59	=59	=59
4C/	-li	.	4c\	-li	.	4e\	-li,	.	4cc\	-li
!	!	!	!LO:TX:b:i:t=Volti Subitto.	!	!	!LO:TX:b:i:t=Volti Subitto	!	!	!LO:TX:b:i:t=Volti Subitto	!
4r	.	.	4r	.	.	4r	.	.	4r	.
!LO:LB:g=original	!	!	!LO:PB:g=original	!	!	!LO:PB:g=original	!	!	!LO:PB:g=original	!
=60||	=60||	=60||	=60||	=60||	=60||	=60||	=60||	=60||	=60||	=60||
*k[b-]	*	*	*k[b-]	*	*	*k[b-]	*	*	*k[b-]	*
*F:	*	*	*F:	*	*	*F:	*	*	*F:	*
!	!	!	!	!	!LO:DY:b:rj	!	!	!	!	!
4F\	Lau-	.	4f\	Lau-	p	8a\L	Lau-	.	8cc\L	Lau-
.	.	.	.	.	.	8f\J	.	.	8a\J	.
4F\	-da	.	4f\	-da	.	8g\L	-da	.	8b-\L	-da
.	.	.	.	.	.	8b-\J	.	.	8dd\J	.
=61	=61	=61	=61	=61	=61	=61	=61	=61	=61	=61
4F\	lau-	.	4f\	lau-	.	8b-\L	lau-	.	8dd\L	lau-
.	.	.	.	.	.	8a\J	.	.	8cc\J	.
4F\	-da	.	4F/	-da	.	4a\	-da	.	4cc\	-da
=62	=62	=62	=62	=62	=62	=62	=62	=62	=62	=62
2F\	lau-	.	2c\	lau-	.	2a\	lau-	.	8cc\L	lau-
.	.	.	.	.	.	.	.	.	8dd\J	.
.	.	.	.	.	.	.	.	.	8ee\L	.
.	.	.	.	.	.	.	.	.	8ff\J	.
=63	=63	=63	=63	=63	=63	=63	=63	=63	=63	=63
4G\	-da	.	4c\	-da	.	4b-\	-da	.	4ee\	-da
4r	.	.	4r	.	.	4r	.	.	4r	.
=64	=64	=64	=64	=64	=64	=64	=64	=64	=64	=64
!	!	!	!	!	!LO:DY:b:rj	!	!	!	!	!
4.A\	lau-	.	4.c\	lau-	p	4.f\	lau-	.	4.ff\	lau-
8A\	-da	.	8c\	-da	.	8f\	-da	.	8ee\	-da
=65	=65	=65	=65	=65	=65	=65	=65	=65	=65	=65
4B-\	lau-	.	4B-\	lau-	.	4.f\	lau-	.	8ee\L	lau-
.	.	.	.	.	.	.	.	.	8dd\J	.
4A\	-da	.	4c\	-da	.	.	.	.	4cc\	-da
.	.	.	.	.	.	8f#X\	-da	.	.	.
=66	=66	=66	=66	=66	=66	=66	=66	=66	=66	=66
8G\L	lau-	.	8d\L	lau-	.	4g\	lau-	.	4b-\	lau-
8E\	.	.	8c\J	.	.	.	.	.	.	.
8F\	.	.	4c\	.	.	4fn\	.	.	4a\	.
8A\J	.	.	.	.	.	.	.	.	.	.
!	!	!	!	!	!	!LO:LB:g=original	!	!	!	!
=67	=67	=67	=67	=67	=67	=67	=67	=67	=67	=67
4c\	-da	.	4c\	-da	.	4e\	-da,	.	4g\	-da
4r	.	.	4r	.	.	4r	.	.	4r	.
!LO:LB:g=original	!	!	!LO:LB:g=original	!	!	!	!	!	!LO:LB:g=original	!
=68	=68	=68	=68	=68	=68	=68	=68	=68	=68	=68
!	!	!LO:DY:b:rj	!	!	!	!	!	!	!	!
4C/	A-	p	4c\	A-	.	8e\L	A-	.	8cc\L	A-
.	.	.	.	.	.	8g\J	.	.	8ee\J	.
8G\	-ni-	.	8Bn\	-ni-	.	8f\	-ni-	.	8dd\	-ni-
8G\	-ma	.	8d\	-ma	.	8d\	-ma	.	8bn\	-ma
=69	=69	=69	=69	=69	=69	=69	=69	=69	=69	=69
4c\	me-	.	4c\	me-	.	4e\	me-	.	8cc\L	me-
.	.	.	.	.	.	.	.	.	8g\J	.
4c\	-a	.	8e\L	-a	.	4g\	-a	.	8cc\L	-a
.	.	.	8c\J	.	.	.	.	.	8ee\J	.
=70	=70	=70	=70	=70	=70	=70	=70	=70	=70	=70
4.Bn\	Do-	.	4.d\	Do-	.	4.g\	Do-	.	4.gg\	Do-
8B\	-mi-	.	8d\	-mi-	.	8g\	-mi-	.	8ff\	-mi-
=71	=71	=71	=71	=71	=71	=71	=71	=71	=71	=71
4c\	-num	.	4c\	-num	.	4g\	-num	.	4ee\	-num
4r	.	.	4r	.	.	4r	.	.	4r	.
=72	=72	=72	=72	=72	=72	=72	=72	=72	=72	=72
4C/	A-	.	8e\L	A-	.	4g\	A-	.	8cc\L	A-
.	.	.	8g\J	.	.	.	.	.	8ee\J	.
8G\	-ni-	.	8f\	-ni-	.	8g\	-ni-	.	8dd\	-ni-
8G\	-ma	.	8d\	-ma	.	8g\	-ma	.	8bn\	-ma
=73	=73	=73	=73	=73	=73	=73	=73	=73	=73	=73
4c\	me-	.	4.e\	me-	.	4g\	me-	.	8cc\L	me-
.	.	.	.	.	.	.	.	.	8g\J	.
4c\	-a	.	.	.	.	4g\	-a	.	8cc\L	-a
.	.	.	8c\	-a	.	.	.	.	8ee\J	.
!	!	!	!	!	!	!LO:LB:g=original	!	!	!LO:LB:g=original	!
=74	=74	=74	=74	=74	=74	=74	=74	=74	=74	=74
4.Bn\	Do-	.	4.d\	Do-	.	4.g\	Do-	.	4.gg\	Do-
8B\	-mi-	.	8d\	-mi-	.	8g\	-mi-	.	8ff\	-mi-
!	!	!	!LO:LB:g=original	!	!	!	!	!	!	!
=75	=75	=75	=75	=75	=75	=75	=75	=75	=75	=75
4c\	-num	.	4c\	-num	.	4g\	-num,	.	4ee\	-num
4r	.	.	4r	.	.	4r	.	.	4r	.
!LO:PB:g=original	!	!	!	!	!	!	!	!	!	!
=76	=76	=76	=76	=76	=76	=76	=76	=76	=76	=76
!	!	!	!	!	!LO:DY:b:rj	!	!	!LO:DY:b:rj	!	!
4F#X\	psal-	.	4.d\	psal-	p	4.a\	psal-	p	4.dd\	psal-
4F#\	-lam	.	.	.	.	.	.	.	.	.
.	.	.	8d\	-lam	.	8a\	-lam	.	8cc\	-lam
=77	=77	=77	=77	=77	=77	=77	=77	=77	=77	=77
4.G\	De-	.	4.d\	De-	.	4.g\	De-	.	8cc\L	De-
.	.	.	.	.	.	.	.	.	8b-X\J	.
.	.	.	.	.	.	.	.	.	8b-\L	-o
8Fn\	-o	.	8d\	-o	.	8g\	-o	.	8bn\J	.
=78	=78	=78	=78	=78	=78	=78	=78	=78	=78	=78
!	!	!	!	!	!	!LO:TX:t=P:problem=takt niepotrzebnie wykreślony	!	!	!	!
4E\	De-	.	4.c\	De-	.	4g\	De-	.	8cc\L	De-
.	.	.	.	.	.	.	.	.	8dd\J	.
4E\	-o	.	.	.	.	4g\	-o	.	8cc\L	-o
.	.	.	8c\	-o	.	.	.	.	8b-X\J	.
=79	=79	=79	=79	=79	=79	=79	=79	=79	=79	=79
4F\	me-	.	4c\	me-	.	4g\	Deo	.	4b-\	me-
4F\	-o	.	4c\	-o,	.	4f\	.	.	4a\	-o
=80	=80	=80	=80	=80	=80	=80	=80	=80	=80	=80
2A\	quam	.	2c\	quam	.	4f\	me-	.	8cc\L	quam
.	.	.	.	.	.	.	.	.	8dd\	.
.	.	.	.	.	.	4f\	-o	.	8ee\	.
.	.	.	.	.	.	.	.	.	8ff\J	.
!	!	!	!	!	!	!	!	!	!LO:LB:g=original	!
=81	=81	=81	=81	=81	=81	=81	=81	=81	=81	=81
4B-\	di-	.	8B-\L	di-	.	2f\	quam	.	8dd\L	di-
.	.	.	8d\J	.	.	.	.	.	8ff\J	.
4B-\	-u	.	8c\L	-iu	.	.	.	.	8ee\L	-u
.	.	.	8B-\J	.	.	.	.	.	8dd\J	.
!	!	!	!	!	!	!LO:LB:g=original	!	!	!	!
=82	=82	=82	=82	=82	=82	=82	=82	=82	=82	=82
4A\	di-	.	4c\	Di-	.	4.f\	di-	.	8cc\L	di-
.	.	.	.	.	.	.	.	.	8ff\J	.
4B-\	-u	.	8B-\L	.	.	.	.	.	8dd\L	-u
.	.	.	8d\J	-iu	.	8g\	-u	.	8b-\J	.
!	!	!	!LO:LB:g=original	!	!	!	!	!	!	!
=83	=83	=83	=83	=83	=83	=83	=83	=83	=83	=83
4c\	fu-	.	4.c\	fu-	.	4f\	fu-	.	4a\	fu-
4C/	-e-	.	.	.	.	4e\	-e-	.	4g\	-e-
.	.	.	8B-\	-e-	.	.	.	.	.	.
=84	=84	=84	=84	=84	=84	=84	=84	=84	=84	=84
4F\	-ro,	.	4A/	-ro	.	4f\	-ro,	.	4f/	-ro.
4r	.	.	4r	.	.	4r	.	.	4r	.
!LO:LB:g=original	!	!	!	!	!	!	!	!	!	!
=85||	=85||	=85||	=85||	=85||	=85||	=85||	=85||	=85||	=85||	=85||
*k[b-e-]	*	*	*k[b-e-]	*	*	*k[b-e-]	*	*	*k[b-e-]	*
*B-:	*	*	*B-:	*	*	*B-:	*	*	*B-:	*
!	!	!	!LO:TX:a:t=3.	!	!	!	!	!	!	!
!	!	!	!LO:N:vis=0	!	!	!	!	!	!	!
4.F\	Lau-	.	1r	.	.	4.f\	Lau-	.	4.a\	Lau-
8G\	-da	.	.	.	.	8f\	-da	.	8b-\	-da
=86	=86	=86	=86	=86	=86	=86	=86	=86	=86	=86
8A\L	a-	.	.	.	.	4f\	A-	.	8cc\L	A-
8G\J	.	.	.	.	.	.	.	.	8b-\J	.
8A\	-ni-	.	.	.	.	8f\	-ni-	.	8cc\	-ni-
8B-\	-ma	.	.	.	.	8f\	-ma	.	8dd\	-ma
!	!	!	!	!	!	!	!	!	!LO:LB:g=original	!
=87	=87	=87	=87	=87	=87	=87	=87	=87	=87	=87
4c\	me-	.	2r	.	.	4f\	me-	.	8.ee-\L	me-
.	.	.	.	.	.	.	.	.	16cc\Jk	.
4A\	-a	.	.	.	.	4f\	-a	.	4cc\	-a,
=88	=88	=88	=88	=88	=88	=88	=88	=88	=88	=88
!LO:TX:a:t=3.	!	!	!	!	!	!	!	!	!	!
1r	.	.	4.d\	lau-	.	4.f\	lau-	.	4.b-\	lau-
.	.	.	8e-\	-da	.	8f\	-da	.	8a\	-da
!	!	!	!	!	!	!LO:LB:g=original	!	!	!	!
=89	=89	=89	=89	=89	=89	=89	=89	=89	=89	=89
.	.	.	8d\L	De-	.	4f\	De-	.	8b-\L	De-
.	.	.	8A\J	.	.	.	.	.	8cc\J	.
.	.	.	8B-\L	-um	.	4f\	-um	.	8dd\L	-um
.	.	.	8c\J	.	.	.	.	.	8ee-\J	.
=90	=90	=90	=90	=90	=90	=90	=90	=90	=90	=90
2r	.	.	4d\	tu-	.	4f\	tu-	.	4ff\	tu-
.	.	.	4B-\	-um	.	4f\	-tum	.	4dd\	-um
=91	=91	=91	=91	=91	=91	=91	=91	=91	=91	=91
!	!	!	!	!	!LO:DY:b:rj	!	!	!LO:DY:b:rj	!	!
4.G-X\	lau-	.	4.B-\	lau-	fp	4.e-\	lau-	fp	4.ee-\	lau-
8G-\	-da	.	8B-\	-da	.	8e-\	-da	.	8cc\	-da
!	!	!	!LO:LB:g=original	!	!	!	!	!	!	!
=92	=92	=92	=92	=92	=92	=92	=92	=92	=92	=92
8F\	A-	.	8c\	A-	.	8e-\	A-	.	8b-\	A-
8F\	-ni-	.	8c\	-ni-	.	8e-\	-ni-	.	8a\	-ni-
4F\	-ma	.	4c\	-ma	.	4e-\	-ma	.	4a\	-ma
=93	=93	=93	=93	=93	=93	=93	=93	=93	=93	=93
!	!	!	!	!	!LO:DY:b:rj	!	!	!	!	!
4G-X\	De-	.	4.B-\	De-	fp	4.e-\	De-	.	4.ee-\	De-
4G-\	-um	.	.	.	.	.	.	.	.	.
.	.	.	8B-\	-um	.	8e-\	-um	.	8cc\	-um
!LO:LB:g=original	!	!	!	!	!	!	!	!	!LO:LB:g=original	!
=94	=94	=94	=94	=94	=94	=94	=94	=94	=94	=94
4F\	tu-	.	4c\	tu-	.	4e-\	tu-	.	8b-\L	tu-
.	.	.	.	.	.	.	.	.	8a\J	.
4F;\	-um	.	4c;\	-um	.	4e-;\	-um	.	4a;\	-um.
=95||	=95||	=95||	=95||	=95||	=95||	=95||	=95||	=95||	=95||	=95||
8.B-\L	lau-	.	8.d\L	lau-	.	4f\	lau-	.	8.b-\L	lau-
16c\Jk	.	.	16e-\Jk	.	.	.	.	.	16a\Jk	.
8c\	-da	.	8e-\	-da	.	8f\	-da	.	8a\	-da
8r	.	.	8r	.	.	8r	.	.	8r	.
!	!	!	!	!	!	!LO:LB:g=original	!	!	!	!
=96	=96	=96	=96	=96	=96	=96	=96	=96	=96	=96
8.A\L	lau-	.	8.e-\L	lau-	.	4f\	lau-	.	8.cc\L	lau-
16B-\Jk	.	.	16d\Jk	.	.	.	.	.	16b-\Jk	.
8B-\	-da	.	8d\	-da	.	8f\	-da	.	8b-\	-da
8r	.	.	8r	.	.	8r	.	.	8r	.
=97	=97	=97	=97	=97	=97	=97	=97	=97	=97	=97
2F\	lau-	.	2c\	lau-	.	2e-\	lau-	.	4ff\	lau-
.	.	.	.	.	.	.	.	.	8.a\L	.
.	.	.	.	.	.	.	.	.	16b-\Jk	-u-
=98	=98	=98	=98	=98	=98	=98	=98	=98	=98	=98
4BB-/	-da.	.	4B-\	-da.	.	4d\	-da.	.	4b-\	-da.
4r	.	.	4r	.	.	4r	.	.	4r	.
==	==	==	==	==	==	==	==	==	==	==
*-	*-	*-	*-	*-	*-	*-	*-	*-	*-	*-
!!!system-decoration: [g1]
!!!ENC: Marta Lawrence
!!!END: 2021-01-02
!!!ENC: Mateusz Solarz
!!!END: 2020-12-30
